assets/img/braze_icons/sticker-circle.svg

<svg fill="none" height="24" viewBox="0 0 24 24" width="24" xmlns="http://www.w3.org/2000/svg"><g fill="#801ed7"><path d="m11.7779 1c-4.35282 0-8.72767 2.78582-10.324 6.88534-.14653.37629-.21979.56444-.17817.7219.0359.13579.13072.25345.25577.31739.14501.07414.37911.03705.84732-.03713.57119-.0905 1.15688-.1375 1.75359-.1375 6.13979 0 11.11709 4.9773 11.11709 11.1171 0 .5263-.0365 1.0441-.1072 1.5508-.0683.4891-.1024.7337-.024.8782.0681.1257.1879.2168.3272.2489.1602.037.355-.0475.7447-.2163 3.9922-1.7301 6.7049-5.8098 6.7049-10.2116 0-6.13979-4.9774-11.1171-11.1172-11.1171z"/><path d="m11.9414 21.3943c.3044.3042.4566.4563.6292.4764.1397.0163.3077-.0412.4081-.1397.124-.1217.1487-.317.1982-.7074.0479-.3788.0726-.7647.0726-1.1565 0-5.0352-4.08184-9.1171-9.11709-9.1171-.39374 0-.78168.025-1.16231.0734-.39041.0497-.58562.0745-.70724.1987-.09847.1004-.15586.2684-.13947.4081.02024.1726.17242.3247.47679.6289z"/></g></svg>

<svg width="24" height="24" viewBox="0 0 24 24" fill="none" xmlns="http://www.w3.org/2000/svg">
<path d="M11.7779 1C7.42508 1 3.05023 3.78582 1.4539 7.88534C1.30737 8.26163 1.23411 8.44978 1.27573 8.60724C1.31163 8.74303 1.40645 8.86069 1.5315 8.92463C1.67651 8.99877 1.91061 8.96168 2.37882 8.8875C2.95001 8.797 3.5357 8.75 4.13241 8.75C10.2722 8.75 15.2495 13.7273 15.2495 19.8671C15.2495 20.3934 15.213 20.9112 15.1423 21.4179C15.074 21.907 15.0399 22.1516 15.1183 22.2961C15.1864 22.4218 15.3062 22.5129 15.4455 22.545C15.6057 22.582 15.8005 22.4975 16.1902 22.3287C20.1824 20.5986 22.8951 16.5189 22.8951 12.1171C22.8951 5.97731 17.9177 1 11.7779 1Z" fill="#801ED7"/>
<path d="M11.9414 21.3943C12.2458 21.6985 12.398 21.8506 12.5706 21.8707C12.7103 21.887 12.8783 21.8295 12.9787 21.731C13.1027 21.6093 13.1274 21.414 13.1769 21.0236C13.2248 20.6448 13.2495 20.2589 13.2495 19.8671C13.2495 14.8319 9.16766 10.75 4.13241 10.75C3.73867 10.75 3.35073 10.775 2.9701 10.8234C2.57969 10.8731 2.38448 10.8979 2.26286 11.0221C2.16439 11.1225 2.107 11.2905 2.12339 11.4302C2.14363 11.6028 2.29581 11.7549 2.60018 12.0591L11.9414 21.3943Z" fill="#801ED7"/>
</svg>
